X: 3
T:Quentin
M:4/4
L:1/4
K:G
B/2c/2|ddde|BBB G/2A/2|BBBd|A3 A/2B/2|cccd| AAA2|c/2B/2A/2G/2 FA| G3||
|ge e/2d/2e/2f/2| gdd2| BBAG|edd2|ge e/2d/2e/2f/2|gdd|2c/B/2A/2G/2 FA|G3
||
